dist/img/svg/ic_pin-swap.svg

<svg width="53" height="58" viewBox="0 0 53 58" fill="none" xmlns="http://www.w3.org/2000/svg">
<g filter="url(#filter0_d)">
<path d="M48.4697 22.2349C48.4697 34.5148 38.5148 44.4697 26.2349 44.4697C13.9549 44.4697 4 34.5148 4 22.2349C4 9.95489 13.9549 0 26.2349 0C38.5148 0 48.4697 9.95489 48.4697 22.2349Z" fill="#003DDA"/>
<path d="M19.9459 43.5803L26.2349 37.2914L32.5239 43.5803L26.2349 49.8693L19.9459 43.5803Z" fill="#003DDA"/>
</g>
<path d="M18.9298 26.0365L17.2905 26.9554C17.7975 27.8599 18.4385 28.6796 19.1955 29.3919L20.4832 28.0233C19.8657 27.4423 19.3431 26.7738 18.9298 26.0365Z" fill="white"/>
<path d="M21.8206 29.0475L20.8357 30.6479C21.7218 31.1932 22.6817 31.5968 23.6887 31.8475L24.1427 30.024C23.3233 29.82 22.542 29.4915 21.8206 29.0475Z" fill="white"/>
<path d="M27.3499 30.1853C26.9628 30.2405 26.5667 30.2685 26.1721 30.2685C26.1719 30.2685 26.1715 30.2685 26.1715 30.2685H26.1479C26.0355 30.2685 25.9218 30.2662 25.81 30.2617L25.7346 32.1395C25.8715 32.1449 26.0105 32.1477 26.1481 32.1477H26.1714C26.1718 32.1477 26.1721 32.1477 26.1724 32.1477C26.6551 32.1477 27.1406 32.1134 27.6152 32.0457L27.3499 30.1853Z" fill="white"/>
<path d="M30.1334 29.2594C29.7643 29.4613 29.3772 29.6359 28.9827 29.7786L29.6216 31.5458C30.1064 31.3706 30.582 31.1559 31.0353 30.908L30.1334 29.2594Z" fill="white"/>
<path d="M32.4203 27.415C32.1446 27.7329 31.8421 28.0323 31.5212 28.3048L32.7378 29.737C33.1311 29.403 33.5018 29.036 33.8399 28.6463L32.4203 27.415Z" fill="white"/>
<path d="M38.671 21.1235L36.2955 23.4995V22C36.2955 19.2895 35.2399 16.7411 33.3233 14.8245C31.4066 12.9078 28.8583 11.8523 26.1477 11.8523C23.4372 11.8523 20.8889 12.9078 18.9722 14.8244C17.0555 16.741 16 19.2894 16 22C16 23.0429 16.1578 24.0715 16.4689 25.0574L18.261 24.4917C18.0077 23.6891 17.8792 22.8507 17.8792 22C17.8792 17.4407 21.5884 13.7315 26.1477 13.7315C30.707 13.7315 34.4162 17.4407 34.4162 22V23.4841L32.0261 21.0999L30.6989 22.4303L35.3665 27.0864L40 22.4521L38.671 21.1235Z" fill="white"/>
<defs>
<filter id="filter0_d" x="0" y="0" width="52.4697" height="57.8693" filterUnits="userSpaceOnUse" color-interpolation-filters="sRGB">
<feFlood flood-opacity="0" result="BackgroundImageFix"/>
<feColorMatrix in="SourceAlpha" type="matrix" values="0 0 0 0 0 0 0 0 0 0 0 0 0 0 0 0 0 0 127 0"/>
<feOffset dy="4"/>
<feGaussianBlur stdDeviation="2"/>
<feColorMatrix type="matrix" values="0 0 0 0 0 0 0 0 0 0 0 0 0 0 0 0 0 0 0.25 0"/>
<feBlend mode="normal" in2="BackgroundImageFix" result="effect1_dropShadow"/>
<feBlend mode="normal" in="SourceGraphic" in2="effect1_dropShadow" result="shape"/>
</filter>
</defs>
</svg>

<svg width="53" height="58" viewBox="0 0 53 58" fill="none" xmlns="http://www.w3.org/2000/svg"><g filter="url(#filter0_d)" fill="#003DDA"><path d="M48.47 22.235c0 12.28-9.955 22.235-22.235 22.235S4 34.515 4 22.235 13.955 0 26.235 0 48.47 9.955 48.47 22.235z"/><path d="M19.946 43.58l6.289-6.289 6.289 6.29-6.29 6.288-6.288-6.289z"/></g><path d="M18.93 26.037l-1.64.918a10.17 10.17 0 001.905 2.437l1.288-1.369a8.293 8.293 0 01-1.553-1.986zm2.89 3.01l-.984 1.6c.886.546 1.846.95 2.853 1.2l.454-1.823a8.208 8.208 0 01-2.322-.977zm5.53 1.138a8.37 8.37 0 01-1.178.084h-.024a8.44 8.44 0 01-.338-.007l-.075 1.877c.137.006.276.009.413.009h.024c.483 0 .969-.035 1.443-.102l-.265-1.86zm2.783-.925a8.26 8.26 0 01-1.15.519l.639 1.767c.484-.175.96-.39 1.413-.638l-.902-1.649zm2.287-1.845a8.338 8.338 0 01-.899.89l1.217 1.432a10.31 10.31 0 001.102-1.09l-1.42-1.232zm6.251-6.292L36.295 23.5V22c0-2.71-1.055-5.259-2.972-7.175a10.081 10.081 0 00-7.175-2.973c-2.71 0-5.26 1.056-7.176 2.972A10.081 10.081 0 0016 22c0 1.043.158 2.072.469 3.057l1.792-.565A8.269 8.269 0 0117.879 22c0-4.56 3.71-8.268 8.269-8.268S34.416 17.44 34.416 22v1.484l-2.39-2.384-1.327 1.33 4.668 4.656L40 22.452l-1.329-1.329z" fill="#fff"/><defs><filter id="filter0_d" x="0" y="0" width="52.47" height="57.869" filterUnits="userSpaceOnUse" color-interpolation-filters="sRGB"><feFlood flood-opacity="0" result="BackgroundImageFix"/><feColorMatrix in="SourceAlpha" values="0 0 0 0 0 0 0 0 0 0 0 0 0 0 0 0 0 0 127 0"/><feOffset dy="4"/><feGaussianBlur stdDeviation="2"/><feColorMatrix values="0 0 0 0 0 0 0 0 0 0 0 0 0 0 0 0 0 0 0.25 0"/><feBlend in2="BackgroundImageFix" result="effect1_dropShadow"/><feBlend in="SourceGraphic" in2="effect1_dropShadow" result="shape"/></filter></defs></svg>
